!!!!SEGMENT: pl-sa--131-a-iii-31--001-005_luna-georgius--vesperae-laudate-dominum.krn
!!!cenid: 17xx:493
!!!COM: Luna, Georgius
!!!COM-rismID: pe41010079
!!!CDT:
!!!CNT:
!!!OPR: Vesperae
!!!OTL: Laudate Dominum
!!!OMV: 005
!!!PDT:
!!!AGN: Sacred; Vespers
!!!YEC: Copyright 2022 Narodowy Instytut Fryderyka Chopina (https://polishscores.org)
!!!YEM: License CC-BY-4.0 (https://creativecommons.org/licenses/by/4.0)
!!!SMS-siglum: PL-SA
!!!SMS-shelfmark: 131/A III 31
!!!SMS-shelfwork: 001-005 M
!!!SMS-variant:
!!!SMS-altvar:
!!!NIFC-rismSourceID: 1001070694
!!!NIFC-rismChildID: 1001070694
!!!NIFC-islandoraID: none
!!!URL-pdf-islandora:
!!!URL-scan: https://bc.bdsandomierz.pl/dlibra/publication/1488/edition/1456/content @EN{Scan in the Sandomierz Diocese Digital Library} @PL{Skany w portalu Cyfrowa Biblioteka Diecezjalna w Sandomierzu}
!!!IIIF:
!!!ONB-nifc: UWAGA: części Vesperae: Dixit Dominus, Confitebor, Beatus vir, Laudate pueri, Laudate Dominum, Magnificat
!!!AIN: 1 bass 1 organ 1 soprn 1 tenor 2 tromp 2 violn
!!!key: C
!!!filter-modern: sic -sq | shed -k -e "s/#X/#/g" | shed -k -e "s/ny/n/g" | shed -k -e "s/-X/-/g" | shed -k -e "s/nX/n/g" | shed -e "s/Xtuplet/tuplet/I" | shed -e "s/TX(.*):t=P:/tx$1:t=P:/LG" | -shed -e "s/TX(.*):t=P:/tx$1:t=P:/LG" | shed -k -e "s/LO:N:vis/LO:n:vis:/L" | shed -e "s/:rj/:RJ/L" | shed -e "s/^(\d+[\/\\]right)/$1yy/I;s/^(\d+[\/\\]left)/$1yy/I" | shed -e "s/LO:DY:(a|b|rj)/LO:dy:$1/L" | shed -e "s/-//B" | modori -m | tie -s | autostem -r | humtr -p
**kern	**kern	**kern	**kern	**text	**kern	**text	**kern	**text	**kern	**kern
*group4	*group3	*group3	*group2	*	*group2	*	*group2	*	*group1	*group1
*part8	*part7	*part6	*part5	*	*part4	*	*part3	*	*part2	*part1
*staff8	*staff7	*staff6	*staff5	*	*staff4	*	*staff3	*	*staff2	*staff1
*ICklav	*ICstr	*ICstr	*ICvox	*	*ICvox	*	*ICvox	*	*ICbras	*ICbras
*Iorgan	*Ivioln	*Ivioln	*Ibass	*	*Itenor	*	*Isoprn	*	*Itromp	*Itromp
*I"Fondamento	*I"Violino Secundo	*I"Violino Primo	*I"Baſso	*	*I"Tenore	*	*I"Canto	*	*I"Tromba Secunda ex C.	*I"Tromba Prima Ex C:
*mI"Basso continuo	*mI"Violino II	*mI"Violino I	*mI"Basso	*	*	*	*mI"Soprano	*	*mI"Tromba II in C	*mI"Tromba I in C
*I'bc	*I'vl 2	*I'vl 1	*I'B	*	*I'T	*	*I'S	*	*I'tr 2 in C	*I'tr 1 in C
*clefF4	*clefG2	*clefG2	*clefF4	*	*clefC4	*	*clefC1	*	*clefG2	*clefG2
*	*	*	*	*	*mclefG2v	*	*	*	*	*
*k[]	*k[]	*k[]	*k[]	*	*k[]	*	*k[]	*	*k[]	*k[]
*C:	*C:	*C:	*C:	*	*C:	*	*C:	*	*C:	*C:
*M3/4	*M3/4	*M3/4	*M3/4	*	*M3/4	*	*M3/4	*	*M3/4	*M3/4
=1	=1	=1	=1	=1	=1	=1	=1	=1	=1	=1
!LO:TX:a:t=Allo':mod=	!LO:TX:a:t=Allo':mod=	!LO:TX:a:t=Allo':mod=	!LO:TX:a:t=Allo':mod=	!	!	!	!	!	!LO:TX:a:t=Allo':mod=	!LO:TX:a:t=Allo':mod=
!LO:TX:b:t=Laudate Dominum:mod=	!LO:TX:b:t=Laudate Dominu(m):mod=	!	!	!	!	!	!	!	!LO:TX:b:t=Laudate Dominum:mod=	!LO:TX:b:t=Laudate Dominum:mod=
4C/	4ee\	4ee\	4c\	Lau-	4G/	Lau-	4ee\	Lau-	4cc\	4ee\
*	*Xtuplet	*Xtuplet	*	*	*	*	*	*	*	*
!	!LO:MO:mod=12eeL(	!LO:MO:mod=12eeL(	!	!	!	!	!	!	!	!
4c\	12ee\L	12ee\L	4c\	-da-	4G/	-da-	4ee\	-da-	4cc\	4ee\
.	12dd\	12dd\	.	.	.	.	.	.	.	.
!	!LO:MO:mod=12ccJ)	!LO:MO:mod=12ccJ)	!	!	!	!	!	!	!	!
.	12cc\J	12cc\J	.	.	.	.	.	.	.	.
4B\	8gg\L	8gg\L	4c\	-te	4G/	-te	4dd\	-te	4g/	4dd\
.	8dd\J	8dd\J	.	.	.	.	.	.	.	.
=2	=2	=2	=2	=2	=2	=2	=2	=2	=2	=2
4A\	4ee\	4ee\	4A\	Do-	4E/	Do-	4cc\	Do-	4cc\	4dd\
!	!LO:MO:mod=12eeL(	!LO:MO:mod=12eeL(	!	!	!	!	!	!	!	!
4A\	12ee\L	12ee\L	4A\	-mi-	4E/	-mi-	4cc\	-mi-	4r	4r
.	12dd\	12dd\	.	.	.	.	.	.	.	.
!	!LO:MO:mod=12ccJ)	!LO:MO:mod=12ccJ)	!	!	!	!	!	!	!	!
.	12cc\J	12cc\J	.	.	.	.	.	.	.	.
!	!	!	!	!LO:MO:mod=-num	!	!LO:MO:mod=-num	!	!	!	!
4G\	8ee\L	8ee\L	4G\	-nu(m)	4E/	-nu(m)	4cc\	-num	4r	4r
.	8b\J	8b\J	.	.	.	.	.	.	.	.
=3	=3	=3	=3	=3	=3	=3	=3	=3	=3	=3
4F\	8a/L	8a\L	8F\	om-	8A\	om-	8ff\	om-	4dd\	4ff\
.	8a/	8ff\	8F\	-neſ	8d\	-nes	8ff\	-neſ	.	.
4G\	8g/	8ee\	4G\	gen-	4c\	gen-	4ee\	gen-	4cc\	4ee\
.	8f/	8dd\	.	.	.	.	.	.	.	.
4GG/	8e/	8cc\	4GG/	.	4B\	.	4dd\	.	4g/	4dd
.	8d/J	8b\J	.	.	.	.	.	.	.	.
=4	=4	=4	=4	=4	=4	=4	=4	=4	=4	=4
4C/	4e/	8cc\L	4C/	-tes	4c\	-tes	4ee\	-tes	4e/	4cc
.	.	(16g\L	.	.	.	.	.	.	.	.
.	.	16a\JJ)	.	.	.	.	.	.	.	.
*	*	*2\right	*	*	*	*	*	*	*	*
8r	8r	(2b-X\	4r	.	4r	.	4r	.	4r	4r
8C/L	8e/L	.	.	.	.	.	.	.	.	.
8D/	8f/	.	4r	.	4r	.	4r	.	4r	4r
8E/J	8g/J	.	.	.	.	.	.	.	.	.
=5	=5	=5	=5	=5	=5	=5	=5	=5	=5	=5
!	!	!	!LO:N:vis=00	!	!LO:N:vis=00	!	!LO:N:vis=00	!	!LO:N:vis=0	!LO:N:vis=0
4F\	4c/	8a\L)	0.r	.	0.r	.	0.r	.	1.r	1.r
!	!	!LO:MO:mod=(16aL	!	!	!	!	!	!	!	!
.	.	16a\L	.	.	.	.	.	.	.	.
!	!	!LO:MO:mod=16b)JJ	!	!	!	!	!	!	!	!
.	.	16bn\JJ	.	.	.	.	.	.	.	.
8r	8r	(2cc\	.	.	.	.	.	.	.	.
8D\L	8f#X/L	.	.	.	.	.	.	.	.	.
8E\	8g/	.	.	.	.	.	.	.	.	.
8F#X\J	8a/J	.	.	.	.	.	.	.	.	.
=6	=6	=6	=6	=6	=6	=6	=6	=6	=6	=6
!	!	!LO:TX:t=P:problem:niewyrazny takt	!	!	!	!	!	!	!	!
4G\	4d/	8b\L)	.	.	.	.	.	.	.	.
!	!	!LO:MO:mod=16bL(	!	!	!	!	!	!	!	!
.	.	16b\L	.	.	.	.	.	.	.	.
!	!	!LO:MO:mod=16ccJJ)	!	!	!	!	!	!	!	!
.	.	16cc\JJ	.	.	.	.	.	.	.	.
!	!	!	!	!	!	!	!	!	!	!
8r	8r	(2dd\	.	.	.	.	.	.	.	.
8E\L	8g#X/L	.	.	.	.	.	.	.	.	.
8F#X\	8a/	.	.	.	.	.	.	.	.	.
8G#X\J	8b/J	.	.	.	.	.	.	.	.	.
=7	=7	=7	=7	=7	=7	=7	=7	=7	=7	=7
4A\	4e/	8cc\L)	.	.	.	.	.	.	2.r	2.r
!	!	!LO:MO:mod=16ddL(	!	!	!	!	!	!	!	!
.	.	16dd\L	.	.	.	.	.	.	.	.
!	!	!LO:MO:mod=16eeJJ)	!	!	!	!	!	!	!	!
.	.	16ee\JJ	.	.	.	.	.	.	.	.
8r	8r	2ff\	.	.	.	.	.	.	.	.
8G\L	8b\L	.	.	.	.	.	.	.	.	.
8A\	8cc\	.	.	.	.	.	.	.	.	.
8B\J	8dd\J	.	.	.	.	.	.	.	.	.
=8	=8	=8	=8	=8	=8	=8	=8	=8	=8	=8
4c\	8cc\L	8ee\L	.	.	.	.	.	.	4cc\	4ee\
.	8ee\J	8gg\J	.	.	.	.	.	.	.	.
4C/	8ee\L	8gg\L	.	.	.	.	.	.	4r	4r
!	!	!LO:MO:mod=16ffL(	!	!	!	!	!	!	!	!
.	(16dd\L	16ff\L	.	.	.	.	.	.	.	.
!	!	!LO:MO:mod=16eeJJ)	!	!	!	!	!	!	!	!
.	16cc\JJ)	16ee\JJ	.	.	.	.	.	.	.	.
4C/	8ff\L	8aa\L	.	.	.	.	.	.	8r	8r
!	!LO:SIC:v:s=8eeJ	!	!	!	!	!	!	!	!	!
.	8dd\J	8gg\J	.	.	.	.	.	.	8ee\	8gg
=9	=9	=9	=9	=9	=9	=9	=9	=9	=9	=9
!	!	!	!LO:N:vis=0	!	!LO:N:vis=0	!	!LO:N:vis=0	!	!	!
4G\	8dd\L	8ff\L	1.r	.	1.r	.	1.r	.	4dd\	4ff
.	8dd\J	8ff\J	.	.	.	.	.	.	.	.
4G\	8dd\L	8ff\L	.	.	.	.	.	.	4r	4r
!	!	!LO:MO:mod=16eeL(	!	!	!	!	!	!	!	!
.	(16cc\L	16ee\L	.	.	.	.	.	.	.	.
!	!	!LO:MO:mod=16ddJJ)	!	!	!	!	!	!	!	!
.	16b\JJ)	16dd\JJ	.	.	.	.	.	.	.	.
4G\	8ee\L	8gg\L	.	.	.	.	.	.	8r	8r
.	8dd\J	8ff\J	.	.	.	.	.	.	8dd\	8ff\
=10	=10	=10	=10	=10	=10	=10	=10	=10	=10	=10
!LO:TX:t=P:problem:mixed beam	!	!	!	!	!	!	!	!	!	!
8C/L	8cc\L	8ee\L	.	.	.	.	.	.	4cc\	4ee\
8c\	16cc\L	16cc\L	.	.	.	.	.	.	.	.
.	16cc\JJ	16cc\JJ	.	.	.	.	.	.	.	.
8B\	16b/LL	16b/LL	.	.	.	.	.	.	4r	4r
.	16b/	16b/	.	.	.	.	.	.	.	.
8A\	16a/	16a/	.	.	.	.	.	.	.	.
.	16a/JJ	16a/JJ	.	.	.	.	.	.	.	.
!	!	!LO:LB:g=original	!	!	!	!	!	!	!	!
8G\	16g/LL	16g/LL	.	.	.	.	.	.	4r	4r
.	16g/	16g/	.	.	.	.	.	.	.	.
8F\J	16f/	16f/	.	.	.	.	.	.	.	.
.	16f/JJ	16f/JJ	.	.	.	.	.	.	.	.
=11	=11	=11	=11	=11	=11	=11	=11	=11	=11	=11
!	!LO:TX:t=P:problem:mixed beam	!LO:TX:t=P:problem:mixed beam	!	!	!	!	!	!	!	!
4E\	8e/L	8e/L	2.r	.	2.r	.	2.r	.	4cc\	4ee
.	8cc\J	8ee\J	.	.	.	.	.	.	.	.
4G\	4b\	4dd\	.	.	.	.	.	.	4g/	4dd
4GG/	4dd\	4bb\	.	.	.	.	.	.	8g/L	8ddL
.	.	.	.	.	.	.	.	.	8g/J	8ddJ
!	!LO:LB:g=original	!	!	!	!	!	!	!	!	!
=12	=12	=12	=12	=12	=12	=12	=12	=12	=12	=12
4C/	4ee\	4ccc\	4c\	Lau-	4G/	Lau-	4ee\	Lau-	4cc\	4ee
!	!	!LO:MO:mod=12eeL(	!	!	!	!	!	!	!	!
4c\	4g/	12ee\L	4c\	-da-	4G/	-da-	4ee\	-da-	4cc\	4ee
.	.	12dd\	.	.	.	.	.	.	.	.
!	!	!LO:MO:mod=12ccJ)	!	!	!	!	!	!	!	!
.	.	12cc\J	.	.	.	.	.	.	.	.
4B\	4g/	8gg\L	4B\	-te	4G/	-te	4dd\	-te	4g\	4dd
.	.	8dd\J	.	.	.	.	.	.	.	.
=13	=13	=13	=13	=13	=13	=13	=13	=13	=13	=13
4A\	4e/	4cc\	4A\	Do-	4E/	Do-	4cc\	Do-	4cc\	4cc\
!	!	!LO:MO:mod=12ccL(	!	!	!	!	!	!	!	!
4A\	4e/	12cc\L	4A\	-mi-	4E/	-mi-	4cc\	-mi-	4r	4r
.	.	12b\	.	.	.	.	.	.	.	.
!	!	!LO:MO:mod=12aJ)	!	!	!	!	!	!	!	!
.	.	12a\J	.	.	.	.	.	.	.	.
!	!	!	!	!	!	!LO:MO:mod=-num	!	!	!	!
4G\	4e/	8ee\L	4G\	-num	4E/	-nu(m)	4cc\	-num	4r	4r
.	.	8b\J	.	.	.	.	.	.	.	.
=14	=14	=14	=14	=14	=14	=14	=14	=14	=14	=14
4F\	8a/L	8a\L	8F\	om-	8d\	om-	8ff\	om-	4dd\	4ff
.	8a/	8ff\	8F\	-neſ	8d\	-nes	8ff\	-neſ	.	.
4G\	8g/	8ee\	4G\	gen-	4c\	gen-	4ee\	gen-	4cc\	4ee
.	8f/	8dd\	.	.	.	.	.	.	.	.
4GG/	8e/	8cc\	4GG/	.	4B\	.	4dd\	.	4g/	4dd
.	8d/J	8b\J	.	.	.	.	.	.	.	.
!LO:LB:g=original	!	!	!	!	!	!	!	!	!	!
=15	=15	=15	=15	=15	=15	=15	=15	=15	=15	=15
!LO:TX:t=P:problem:mixed beam	!LO:TX:t=P:problem:mixed beam	!	!	!	!	!	!	!	!	!
8C/L	8e/L	8cc\L	4C/	-tes	4c\	-tes	4ee\	-tes	4e/	4cc
8c\J	8cc\J	8cc\J	.	.	.	.	.	.	.	.
16G\LL	16g/LL	16g/LL	4r	.	4r	.	4r	.	4r	4r
16F\	16f/	16f/	.	.	.	.	.	.	.	.
16E\	16e/	16e/	.	.	.	.	.	.	.	.
16D\JJ	16d/JJ	16d/JJ	.	.	.	.	.	.	.	.
4C/	4c/	4c/	4r	.	4r	.	4r	.	4r	4r
!	!	!	!LO:LB:g=original	!	!	!	!	!	!LO:LB:g=original	!
=16	=16	=16	=16	=16	=16	=16	=16	=16	=16	=16
8C/L	4ccc\	4ccc\	4c\	quo-	4G/	quo-	4ee\	quo-	4cc\	4ee
8C/	.	.	.	.	.	.	.	.	.	.
8C/	16gg\LL	16gg\LL	8c\	-niam	8G/	-ni-	8ee\	-ni-	8cc\L	8ee\L
.	16ff\	16ff\	.	.	.	.	.	.	.	.
8C/	16ee\	16ee\	8c\	con-	8G/	-am	8ee\	-am	8cc\	8ee\
.	16dd\JJ	16dd\JJ	.	.	.	.	.	.	.	.
8C/	8cc\L	8cc\L	8c\	-fir-	8G/	con-	8ee\	con-	8cc\	8ee\
8C/J	8ee\J	8ccc\J	8c\	.	8G/	-fir-	8ee\	-fir-	8cc\J	8ee\J
!	!	!	!	!	!	!	!	!	!	!LO:LB:g=original
=17	=17	=17	=17	=17	=17	=17	=17	=17	=17	=17
8G\L	4cc\	4ee\	4G\	-ma-	4c\	-ma-	4ee\	-ma-	4cc\	4ee\
8G\	.	.	.	.	.	.	.	.	.	.
8G\	4b\	4dd\	4G\	-ta	4B\	-ta	4dd\	-ta	8g/L	8ddL
8G\	.	.	.	.	.	.	.	.	8g/J	8ddJ
8G\	4b\	4dd\	4G\	est	4B\	est	4dd\	est	4g/	4dd
8G\J	.	.	.	.	.	.	.	.	.	.
!	!	!	!	!	!	!	!LO:LB:g=original	!	!	!
=18	=18	=18	=18	=18	=18	=18	=18	=18	=18	=18
*	*	*	*2\right	*	*2\right	*	*2\right	*	*	*
8G\L	4ff\	4ff\	2G\	su-	2d\	su-	2ff\	su-	4dd\	4ff
8G\	.	.	.	.	.	.	.	.	.	.
8G\	16dd\LL	16dd\LL	.	.	.	.	.	.	8dd\L	8ff\L
.	16cc\	16cc\	.	.	.	.	.	.	.	.
8G\	16b\	16b\	.	.	.	.	.	.	8dd\	8ff\
.	16a\JJ	16a\JJ	.	.	.	.	.	.	.	.
!	!LO:TX:t=P:problem:mixed beam	!LO:TX:t=P:problem:mixed beam	!	!	!	!	!	!	!	!
8G\	8g/L	8g/L	4G\	-per	4d\	-per	4ff\	-per	8dd\	8ff\
8G\J	8dd\J	8ff\J	.	.	.	.	.	.	8dd\J	8ff\J
!	!	!	!	!	!LO:LB:g=original	!	!	!	!	!
=19	=19	=19	=19	=19	=19	=19	=19	=19	=19	=19
!	!LO:TX:a:t=t:mod=	!LO:TX:a:t=t:mod=	!LO:MO:mod=(4c	!	!LO:MO:mod=(4d	!	!	!	!	!
!	!LO:MO:mod=4ddT	!LO:MO:mod=4ffT	!	!	!	!	!	!	!	!
4c\	4dd\	4ff\	4c\	noſ	4d\	noſ	(4ff\	nos	4dd\	4ff
!	!	!	!LO:MO:mod=4C)	!	!LO:MO:mod=4c)	!	!	!	!	!
4C/	4cc\	4ee\	4C/	.	4c\	.	4ee\)	.	4cc\	4ee
4r	4ee\	4gg\	4C/	mi-	4e\	mi-	4gg\	mi-	4ee\	4gg
=20	=20	=20	=20	=20	=20	=20	=20	=20	=20	=20
!	!	!	!	!	!	!	!	!	!	!
4C/	4ee\	4gg\	2C/	-se-	(4e\	-se-	(4gg\	-se-	4ee\	4gg
4r	4dd\	4ff\	.	.	4d\)	.	4ff\)	.	4dd\	4ff
4r	4cc\	4ee\	4C/	-ri-	4c\	-ri-	4ee\	-ri-	4cc\	4ee
=21	=21	=21	=21	=21	=21	=21	=21	=21	=21	=21
!	!	!	!	!	!	!	!	!	!	!LO:TX:t=P:problem=takt zapisany repetycją
4C/	4ee\	4gg\	4C/	-cor-	4e\	-cor-	4gg\	-cor-	4ee\	4ggyy
4F\	4dd\	4ff\	4F\	-di-	4d\	-di-	4ff\	-di-	4dd\	4ffyy
!	!	!	!LO:SIC:v:s=4F#	!	!	!	!	!	!	!
4F#X\	4cc\	4ee\	4F\	-a	4c\	-a	4ee\	-a	4cc\	4eeyy
!	!	!LO:PB:g=original	!	!	!	!	!	!	!	!
=22	=22	=22	=22	=22	=22	=22	=22	=22	=22	=22
!	!	!LO:TX:a:t=t:mod=	!	!	!	!	!	!	!	!
!	!LO:MO:mod=4ccT	!LO:MO:mod=4eet	!	!	!	!	!	!	!	!
4G\	4cc\	4ee\	4G\	e-	4c\	e-	4ee\	e-	4cc\	4ee
4GG/	4b\	4dd\	4G\	-jus	4B\	-jus	4dd\	-juſ	4g/	4dd
4B\	4g\	4dd\	4B\	et	4B\	et	4dd\	et	4g/	4dd
=23	=23	=23	=23	=23	=23	=23	=23	=23	=23	=23
4c\	4g/	4.ee\	4c\	ve-	4G/	ve-	4.ee\	ve-	4cc\	4ee
4A\	4cc/	.	4A\	-ri-	4c\	-ri-	.	.	4r	4r
.	.	16ff#X\LL	.	.	.	.	8ee\	-ri-	.	.
.	.	16gg\JJ	.	.	.	.	.	.	.	.
4F#X\	4a/	8aa\L	4F#X\	-tas	4c\	-taſ	4ee\	-taſ	4r	4r
.	.	8ee\J	.	.	.	.	.	.	.	.
=24	=24	=24	=24	=24	=24	=24	=24	=24	=24	=24
.	.	8qqee/	.	.	.	.	.	.	.	.
4B\	4g/	4.dd\	4B\	Do-	4G\	Do-	4dd\	Do-	4g/	4dd
4G\	4b/	.	4G\	-mi-	4B\	-mi-	4dd\	-mi-	4r	4r
.	.	16ee\LL	.	.	.	.	.	.	.	.
.	.	16ff#X\JJ	.	.	.	.	.	.	.	.
4E\	4g/	8gg\L	4E\	-ni	4B\	-ni	4dd\	-ni	4r	4r
.	.	8dd\J	.	.	.	.	.	.	.	.
!	!	!	!LO:LB:g=original	!	!	!	!	!	!	!
=25	=25	=25	=25	=25	=25	=25	=25	=25	=25	=25
.	.	8qqdd/	.	.	.	.	.	.	.	.
4A\	4f#X/	4.cc\	(4A\	ma-	4E/	ma-	2cc\	ma-	4dd\	4dd\
4F#X\	4a/	.	4F#X\)	.	2A/	-net	.	.	4r	4r
.	.	8aa\L	.	.	.	.	.	.	.	.
4D\	4f#/	8ff#X\	4D\	-net	.	.	4cc\	-net	8r	8r
.	.	8cc\J	.	.	.	.	.	.	16dd\LL	16dd\LL
.	.	.	.	.	.	.	.	.	16dd\JJ	16dd\JJ
=26	=26	=26	=26	=26	=26	=26	=26	=26	=26	=26
4G\	8g/L	8b\L	8G\	in	8G/	in	8b\	in	4g/	4dd
.	8b/J	8gg\J	8G\	ae-	8G/	ae-	8b\	ae-	.	.
!	!LO:SIC:v:s=4f#	!	!	!	!	!	!	!	!	!
4d\	4f/	4a/	4d\	-ter-	2F#X/	-ter-	2a\	-ter-	4dd\	4dd\
4D\	4a/	4ff#X\	4D\	.	.	.	.	.	8dd\L	8dd\L
.	.	.	.	.	.	.	.	.	8dd\J	8dd\J
!	!LO:PB:g=original	!	!	!	!	!	!	!	!	!
=27	=27	=27	=27	=27	=27	=27	=27	=27	=27	=27
4G\	4b\	8gg\L	4G\	-num	4G/	-num	4b\	-num	4g/	4dd
.	.	(16dd\L	.	.	.	.	.	.	.	.
.	.	16ee\JJ)	.	.	.	.	.	.	.	.
!	!	!LO:MO:mod=(2ff	!	!	!	!	!	!	!	!
8r	8r	(2ffn\	4r	.	4r	.	4r	.	4r	4r
8GG/L	8b\L	.	.	.	.	.	.	.	.	.
8AA/	8cc\	.	4r	.	4r	.	4r	.	4r	4r
8BB/J	8dd\J	.	.	.	.	.	.	.	.	.
=28	=28	=28	=28	=28	=28	=28	=28	=28	=28	=28
!	!	!	!	!	!	!	!	!	!LO:TX:a:t=3:mod=	!
!	!	!	!LO:N:vis=00	!	!LO:N:vis=00	!	!LO:N:vis=00	!	!LO:N:vis=0	!LO:N:vis=0
4C/	4g/	8ee\L)	0.r	.	0.r	.	0.r	.	1.r	1.r
!	!	!LO:MO:mod=16eeL(	!	!	!	!	!	!	!	!
.	.	16ee\L	.	.	.	.	.	.	.	.
!	!	!LO:MO:mod=16ff#JJ)	!	!	!	!	!	!	!	!
.	.	16ff#X\JJ	.	.	.	.	.	.	.	.
8r	8r	2gg\	.	.	.	.	.	.	.	.
8AA/L	8cc#X\L	.	.	.	.	.	.	.	.	.
8BB/	8dd\	.	.	.	.	.	.	.	.	.
8C#X/J	8ee\J	.	.	.	.	.	.	.	.	.
!LO:LB:g=original	!	!	!	!	!	!	!	!	!	!
=29	=29	=29	=29	=29	=29	=29	=29	=29	=29	=29
4D/	4a/	8ff#X\L	.	.	.	.	.	.	.	.
!	!	!LO:MO:mod=(16ff#L	!	!	!	!	!	!	!	!
.	.	16ff#\L	.	.	.	.	.	.	.	.
!	!	!LO:MO:mod=16ggJJ)	!	!	!	!	!	!	!	!
.	.	16ggn\JJ	.	.	.	.	.	.	.	.
8r	8r	(2aa\	.	.	.	.	.	.	.	.
8BB/L	8dd#X\L	.	.	.	.	.	.	.	.	.
8C#X/	8ee\	.	.	.	.	.	.	.	.	.
!	!LO:SIC:v:s=8ff#J	!	!	!	!	!	!	!	!	!
8D#X/J	8ff\J	.	.	.	.	.	.	.	.	.
=30	=30	=30	=30	=30	=30	=30	=30	=30	=30	=30
4E\	4b\	8gg\L)	.	.	.	.	.	.	2.r	2.r
!	!	!LO:MO:mod=16aaL(	!	!	!	!	!	!	!	!
.	.	16aa\L	.	.	.	.	.	.	.	.
!	!	!LO:MO:mod=16bbJJ)	!	!	!	!	!	!	!	!
.	.	16bb\JJ	.	.	.	.	.	.	.	.
8r	8r	2ccc\	.	.	.	.	.	.	.	.
!LO:MO:mod=8DL	!	!	!	!	!	!	!	!	!	!
8Dn\L	8ff#X\L	.	.	.	.	.	.	.	.	.
8E\	8gg\	.	.	.	.	.	.	.	.	.
!LO:SIC:v:s=8F#J	!	!	!	!	!	!	!	!	!	!
8F\J	8aa\J	.	.	.	.	.	.	.	.	.
!	!	!	!	!	!	!	!	!	!LO:LB:g=original	!
=31	=31	=31	=31	=31	=31	=31	=31	=31	=31	=31
4G\	8gg\L	8bb\L	.	.	.	.	.	.	4g/	4dd
.	8b\J	8dd\J	.	.	.	.	.	.	.	.
4GG/	8b\L	8dd\L	.	.	.	.	.	.	4r	4r
!	!LO:MO:mod=16aL(	!	!	!	!	!	!	!	!	!
.	16a\L	(16cc\L	.	.	.	.	.	.	.	.
!	!LO:MO:mod=16gJJ)	!	!	!	!	!	!	!	!	!
.	16g\JJ	16b\JJ)	.	.	.	.	.	.	.	.
4GG/	8cc\L	8ee\L	.	.	.	.	.	.	8r	8r
.	8b\J	8dd\J	.	.	.	.	.	.	8g/	8dd
=32	=32	=32	=32	=32	=32	=32	=32	=32	=32	=32
!	!	!	!LO:N:vis=0	!	!LO:N:vis=0	!	!LO:N:vis=0	!	!	!
4D\	8a/L	8cc\L	1.r	.	1.r	.	1.r	.	4dd\	4dd\
.	8a/J	8cc\J	.	.	.	.	.	.	.	.
4D\	8a/L	8cc\L	.	.	.	.	.	.	4r	4r
!	!LO:MO:mod=16gL(	!	!	!	!	!	!	!	!	!
.	16g/L	(16b\L	.	.	.	.	.	.	.	.
!	!LO:SIC:v:s=16f#JJ)	!	!	!	!	!	!	!	!	!
.	16f/JJ	16a\JJ)	.	.	.	.	.	.	.	.
4D\	8b/L	8dd\L	.	.	.	.	.	.	8r	8r
.	8a/J	8cc\J	.	.	.	.	.	.	8dd\	8dd\
!	!	!LO:LB:g=original	!	!	!	!	!	!	!	!
=33	=33	=33	=33	=33	=33	=33	=33	=33	=33	=33
!LO:TX:t=P:problem:mixed beam	!	!	!	!	!	!	!	!	!	!
8GG/L	8g/L	8b/L	.	.	.	.	.	.	4g/	4dd
8G\	16g/L	16g/L	.	.	.	.	.	.	.	.
.	16g/JJ	16g/JJ	.	.	.	.	.	.	.	.
8F#X\	16f#X/LL	16f#X/LL	.	.	.	.	.	.	4r	4r
.	16f#/	16f#/	.	.	.	.	.	.	.	.
8E\	16e/	16e/	.	.	.	.	.	.	.	.
.	16e/JJ	16e/JJ	.	.	.	.	.	.	.	.
8D\	16d/LL	16d/LL	.	.	.	.	.	.	4r	4r
.	16d/	16d/	.	.	.	.	.	.	.	.
8C\J	16c/	16c/	.	.	.	.	.	.	.	.
.	16c/JJ	16c/JJ	.	.	.	.	.	.	.	.
=34	=34	=34	=34	=34	=34	=34	=34	=34	=34	=34
!	!	!LO:TX:t=P:problem:mixed beam	!	!	!	!	!	!	!	!
8BB/L	8B/L	8B/L	2.r	.	2.r	.	2.r	.	4r	4r
8GG/J	8b/J	8gg\J	.	.	.	.	.	.	.	.
4D/	4f#X/	4a/	.	.	.	.	.	.	4dd\	4dd\
!	!	!LO:TX:a:t=t:mod=	!	!	!	!	!	!	!	!
!	!	!LO:MO:mod=4ff#t	!	!	!	!	!	!	!	!
4DD/	4a/	4ff#X\	.	.	.	.	.	.	8dd\L	8dd\L
.	.	.	.	.	.	.	.	.	8dd\J	8dd\J
!	!	!	!	!	!	!	!	!	!	!LO:LB:g=original
=35	=35	=35	=35	=35	=35	=35	=35	=35	=35	=35
!	!	!	!	!LO:MO:mod=Glo-	!	!	!	!LO:MO:mod=Glo-	!	!
4GG/	4b\	8gg\L	4G\	glo-	4B\	Glo-	4dd\	glo-	4g/	4dd
.	.	8dd\	.	.	.	.	.	.	.	.
4G\	4b\	8b\	4G\	-ri-	4B\	-ria	4dd\	-ri-	4g/	4dd
.	.	8g\J	.	.	.	.	.	.	.	.
4G\	4b\	4gg\	4G\	-a	4B\	.	4dd\	-a	4g/	4dd
=36	=36	=36	=36	=36	=36	=36	=36	=36	=36	=36
4G\	4dd\	8ff\L	4G\	Pa-	4B\	Pa-	4dd\	Pa-	4g/	4dd
.	.	8dd\	.	.	.	.	.	.	.	.
4G\	4dd\	8b\	4G\	-tri	4B\	-tri	4dd\	-tri	4g/	4dd
.	.	8g\J	.	.	.	.	.	.	.	.
4G\	4dd\	4ff\	4G\	et	4B\	et	4dd\	et	4g/	4dd
!	!	!	!	!	!	!	!LO:LB:g=original	!	!	!
=37	=37	=37	=37	=37	=37	=37	=37	=37	=37	=37
4G\	4b\	8ff\L	(4G\	Fi-	(4B\	Fi-	2ff\	Fi-	4g/	4dd
.	.	8dd\	.	.	.	.	.	.	.	.
4A\	4cc\	8b\	4A\)	.	4c\)	.	.	.	4r	4r
.	.	8g\J	.	.	.	.	.	.	.	.
.	.	8qqg/	.	.	.	.	.	.	.	.
4B\	4dd\	4f/	4B\	-li-	4d\	-li-	4ff\	-li-	4dd\	4ff\
!	!LO:LB:g=original	!	!	!	!LO:LB:g=original	!	!	!	!	!
=38	=38	=38	=38	=38	=38	=38	=38	=38	=38	=38
!	!	!LO:SIC:v:s=8eL	!	!	!	!	!	!	!	!
8c\L	8cc\L	8d/L	4c\	-o	4c\	-o	4ee\	-o	4cc\	4ee
!LO:TX:t=P:problem:zamazana nuta	!	!	!	!	!	!	!	!	!	!
8c\	8cc\	8cc/	.	.	.	.	.	.	.	.
8G\	8g\	8g/	4r	.	4r	.	4r	.	4r	4r
8E\J	8e\J	8e/J	.	.	.	.	.	.	.	.
4C/	4c/	4c/	4r	.	4r	.	4r	.	4r	4r
=39	=39	=39	=39	=39	=39	=39	=39	=39	=39	=39
4C/	4g/	4ee\	2c\	et	2G/	et	2ee\	et	4cc\	4ee
!	!	!	!	!	!	!	!	!	!	!
4c\	4g/	(12ee\L	.	.	.	.	.	.	4cc\	4ee
.	.	12dd\	.	.	.	.	.	.	.	.
!	!	!	!	!	!	!	!	!	!	!
.	.	12cc\J)	.	.	.	.	.	.	.	.
4B\	4g/	8gg\L	4B\	Spi-	4G/	Spi-	4dd\	Spi-	4g\	4dd
.	.	8dd\J	.	.	.	.	.	.	.	.
=40	=40	=40	=40	=40	=40	=40	=40	=40	=40	=40
4A\	4e/	4cc\	4A\	-ri-	4E/	-ri-	4cc\	-ri-	4cc\	4cc\
!	!	!	!	!	!	!	!	!	!	!
4A\	4e/	(12cc\L	4A\	-tu-	4E/	-tu-	4cc\	-tu-	4r	4r
.	.	12b\	.	.	.	.	.	.	.	.
!	!	!	!	!	!	!	!	!	!	!
.	.	12a\J)	.	.	.	.	.	.	.	.
4G\	4e/	8ee\L	4G\	-i	4E/	-i	4b\	-i	4r	4r
.	.	8b\J	.	.	.	.	.	.	.	.
!	!	!	!LO:LB:g=original	!	!	!	!	!	!	!
=41	=41	=41	=41	=41	=41	=41	=41	=41	=41	=41
4F\	8a/L	8a\L	4F\	Sanc-	4d\	Sanc-	4ff\	Sanc-	4dd\	4ff
.	8a/	8ff\	.	.	.	.	.	.	.	.
4G\	8g/	8ee\	4G\	.	4c\	.	4ee\	.	4cc\	4ee
.	8f/	8dd\	.	.	.	.	.	.	.	.
4GG/	8e/	8cc\	4GG/	.	4B\	.	4dd\	.	4g/	4dd
.	8d/J	8b\J	.	.	.	.	.	.	.	.
=42	=42	=42	=42	=42	=42	=42	=42	=42	=42	=42
!	!LO:TX:t=P:problem:mixed beam	!	!	!	!	!	!	!	!LO:TX:t=P:problem:mixed beam	!LO:TX:t=P:problem:mixed beam
4C/	8e/L	8cc\L	4C/	-to	4c\	-to	4ee\	-to	8e/L	8ccL
.	8e/	8cc\	.	.	.	.	.	.	8cc\	8ee\
4C/	8gg\	8bb-X\	8c\	si-	8G\	si-	8ee\	si-	8cc\	8ee\
.	8ee\	8gg\	8c\	-cut	8G\	-cut	8ee\	-cut	8cc\	8ee\
4C/	8cc\	8ee\	4c\	e-	4G\	e-	4ee\	e-	8cc\	8ee\
.	8g\J	8b-X\J	.	.	.	.	.	.	8cc\J	8ee\J
=43	=43	=43	=43	=43	=43	=43	=43	=43	=43	=43
!	!LO:TX:t=P:problem:mixed beam	!LO:TX:a:t=a:mod=	!	!	!	!	!	!	!	!
4F\	8f/L	8a\L	4F\	-rat	4A\	-rat	4ff\	-rat	8cc\L	8ff\L
.	8dd\	8dd\	.	.	.	.	.	.	8dd\	8ff#\
4D\	8aa\	8ccc\	8d\	in	8A\	in	8ff#X\	in	8dd\	8ff#\
!	!LO:SIC:v:s=8ff#	!	!	!	!	!	!	!	!	!
.	8ff\	8aa\	8d\	prin-	8A\	prin-	8ff#\	prin-	8dd\	8ff#\
4D\	8dd\	8ff#X\	8d\	-ci-	8A\	-ci-	8ff#\	-ci-	8dd\	8ff#\
.	8a\J	8cc\J	8d\	-pi-	8A\	-pi-	8ff#\	-pi-	8dd\J	8ff#\J
!LO:PB:g=original	!	!LO:LB:g=original	!	!	!	!	!	!	!LO:LB:g=original	!
=44	=44	=44	=44	=44	=44	=44	=44	=44	=44	=44
!LO:TX:t=P:problem:kontynuacja na str. 41 skanu	!	!	!	!	!	!	!	!	!	!
4G	8g/L	8b\L	8G\	-o	8B\	-o	8gg\	-o	8dd\L	8gg\L
.	8d/	8g\	8G\	et	8B\	et	8dd\	et	8g\	8dd\
4GG	8g/	8b\	8G\	nunc	8B\	nunc	8dd\	nunc	8g\	8dd\
.	8b/	8dd\	8G\	et	8B\	et	8dd\	et	8g\	8dd\
8BBL	8dd/	8ffn\	8BB/	nunc	8d\	nunc	8ffn\	nunc	8dd\	8ffn\
8CJ	8cc/J	8ee\J	8C/	et	8c\	et	8ee\	et	8cc\J	8ee\J
=45	=45	=45	=45	=45	=45	=45	=45	=45	=45	=45
!	!LO:TX:a:t=t:mod=	!LO:MO:mod=4eet	!	!LO:MO:mod=sem-	!	!LO:MO:mod=sem-	!	!LO:MO:mod=sem-	!	!
!	!LO:MO:mod=4ccT	!	!	!	!	!	!	!	!	!
4G	4cc\	4ee\	4G\	Sem-	4c\	Sem-	4ee\	Sem-	4cc\	4ee
8GL	4b\	4dd\	4G\	-per	4B\	-per	4dd\	-per	4g\	4dd
8F	.	.	.	.	.	.	.	.	.	.
8E	4r	4r	4r	.	4r	.	4r	.	4r	4r
8DJ	.	.	.	.	.	.	.	.	.	.
=46	=46	=46	=46	=46	=46	=46	=46	=46	=46	=46
4C	8r	8r	4r	.	4r	.	4r	.	8r	8r
.	16cc\LL	16ee\LL	.	.	.	.	.	.	16cc\LL	16ee\LL
.	16dd\JJ	16ff\JJ	.	.	.	.	.	.	16dd\JJ	16ff\JJ
4C	8ee\L	8gg\L	8C/	et	8e\	et	8gg\	et	8ee\L	8gg\L
!	!LO:MO:mod=16ddL(	!LO:MO:mod=16ffL(	!	!	!	!	!	!	!	!
.	16dd\L	16ff\L	8C/	in	8e\	in	8gg\	in	8ee\	8gg\
!	!LO:MO:mod=16ccJJ)	!LO:MO:mod=16eeJJ)	!	!	!	!	!	!	!	!
.	16cc\JJ	16ee\JJ	.	.	.	.	.	.	.	.
!	!	!	!	!	!	!	!LO:LB:g=original	!	!	!
4C	8ff\L	8aa\L	8C/	Sae-	8f\	Sae-	8aa\	Sae-	8ff\	8aa\
.	8ee\J	8gg\J	8C/	-cu-	8e\	-cu-	8gg\	-cu-	8ee\J	8gg\J
!	!	!	!	!	!LO:LB:g=original	!	!	!	!	!
=47	=47	=47	=47	=47	=47	=47	=47	=47	=47	=47
4G	8dd\L	8ff\L	4G\	-la	4d\	-la	4ff\	-la	8dd\L	8ff\L
.	8dd\J	8ff\J	.	.	.	.	.	.	8dd\J	8ff\J
4GG	8dd\L	8ff\L	8G\	Sae-	8d\	Sae-	8ff\	Sae-	8dd\L	8ff\L
.	(16cc\L	(16ee\L	8G\	-cu-	8d\	-cu-	8ff\	-cu-	16cc\L	16ee\L
.	16b\JJ)	16dd\JJ)	.	.	.	.	.	.	16g\JJ	16ddJJ
4GG	8ee\L	8gg\L	4G\	-lo-	8e\L	-lo-	8gg\L	-lo-	8ee\L	8gg\L
.	8dd\J	8ff\J	.	.	8d\J	.	8ff\J	.	8dd\J	8ff\J
!	!	!	!LO:LB:g=original	!	!	!	!	!	!	!LO:LB:g=original
=48	=48	=48	=48	=48	=48	=48	=48	=48	=48	=48
4C\	8cc\L	8ee\L	4C\	-rum	4c\	-rum	4ee\	-rum	4cc\	4ee\
.	8ee\J	8ccc\J	.	.	.	.	.	.	.	.
4G	4b\	4dd\	4G\	a-	2B\	a-	2dd\	a-	4g\	4dd\
4GG	4dd\	4bb\	4GG/	.	.	.	.	.	4g\	4dd\
=49	=49	=49	=49	=49	=49	=49	=49	=49	=49	=49
!	!LO:TX:t=P:problem:mixed beam	!LO:TX:t=P:problem:mixed beam	!	!	!	!	!	!	!	!
4C	8ee\L	8ccc\L	4C/	-men	4c\	-men	4ee\	-men	4cc\	4ee\
.	16c/L	16e/L	.	.	.	.	.	.	.	.
.	16d/JJ	16f/JJ	.	.	.	.	.	.	.	.
4C	8e/L	8g/L	8C/	et	8G/	et	8ee\	et	4r	4r
!	!	!LO:MO:mod=16fL(	!	!	!	!	!	!	!	!
.	16d/L	16f/L	8C/	in	8G/	in	8ee\	in	.	.
!	!	!LO:MO:mod=16eJJ)	!	!	!	!	!	!	!	!
.	16c/JJ	16e/JJ	.	.	.	.	.	.	.	.
4C	8f/L	8a/L	8C/	Sae-	8A/	Sae-	8ff\	Sae-	8r	8r
.	8e/J	8g/J	8C/	-cu-	8G/	-cu-	8ee\	-cu-	8ee\	8gg\
!	!LO:LB:g=original	!	!	!	!	!	!	!	!	!
=50	=50	=50	=50	=50	=50	=50	=50	=50	=50	=50
4GG	8d/L	8f/L	4G\	-la	4F/	-la	4dd\	-la	4dd\	4ff\
.	8d/J	8f/J	.	.	.	.	.	.	.	.
4GG	8d/L	8f/L	8G\	Sae-	8F/	Sae-	8dd\	Sae-	4r	4r
!	!LO:MO:mod=16cL(	!LO:MO:mod=16eL(	!	!	!	!	!	!	!	!
.	16c/L	16e/L	8G\	-cu-	8F/	-cu-	8dd\	-cu-	.	.
!	!LO:MO:mod=16BJJ)	!LO:MO:mod=16dJJ)	!	!	!	!	!	!	!	!
.	16B/JJ	16d/JJ	.	.	.	.	.	.	.	.
4GG	8e/L	8g/L	4G\	-lo-	8G/L	-lo-	8ee\L	-lo-	8r	8r
.	8d/J	8f/J	.	.	8F/J	.	8dd\J	.	8dd\	8ff\
=51	=51	=51	=51	=51	=51	=51	=51	=51	=51	=51
!	!	!LO:TX:t=P:problem:mixed beam	!	!	!	!	!	!	!	!
4C\	8c/L	8e/L	4C/	-rum	4E/	-rum	4cc\	-rum	4cc\	4ee\
.	8e/J	8cc\J	.	.	.	.	.	.	.	.
4G	4B/	4d/	4G\	a-	2B\	a-	2dd\	a-	4g\	4dd\
4GG	4d/	4b\	4GG/	.	.	.	.	.	4g\	4dd\
=52	=52	=52	=52	=52	=52	=52	=52	=52	=52	=52
!	!LO:TX:t=P:problem:mixed beam	!	!	!	!	!	!	!	!	!
4C\	8e/L	8cc\L	4C/	-men	4c\	-men	4ee\	-men	4cc\	4ee\
.	8ee\J	8ccc\J	.	.	.	.	.	.	.	.
4G	4b\	4dd\	4G\	a-	2B\	a-	2dd\	a-	4g\	4dd\
4GG	4dd\	4bb\	4GG/	.	.	.	.	.	4g\	4dd\
=53	=53	=53	=53	=53	=53	=53	=53	=53	=53	=53
4C	4ee\	4ccc\	4C/	-men	4c\	-men	4ee\	-men	4cc\	4ee\
4r	4r	4r	4r	.	4r	.	4r	.	4r	4r
4r	4r	4r	4r	.	4r	.	4r	.	4r	4r
==	==	==	==	==	==	==	==	==	==	==
*-	*-	*-	*-	*-	*-	*-	*-	*-	*-	*-
!!!system-decoration: [(g1)][(g2)][(g3)][g4]
!!!EED: Anna Matuszewska
!!!EEV: 2020-08-10
!!!EED-revision: Andrzej Borzym
!!!EEV-revision: 2025-02-27
!!!ENC-modern: Andrzej Borzym
!!!END-modern: 2025-02-28
